X: 8
T: The Banks of Allan
M:6/8
L:1/8
Q:200
C:Playford
O:Playford
A:English
K:D
A|FGF FED|FAA A2 d|Bdd Add|Bdd Add|FGF FED|FAA A2 d|BdB AGF|FAA A2d|Bdd Add|
Bdd Add|FGF FED|FAA A2 d|BdB AGF|GEE E2|| g|fgf {g}fed|faa a2 g|fgf fed| fbb bag|f>ga efg|def fed|BdB {b}agf|GEE E2:|

